X: 68
M: 6/8
L: 1/8
K: D
(dA) F (G>A) B | (Ad) F F E D |
(D>E) D (A>B) A | (d>e) d {fg}a2 f |
(fd) A B> c d | (A>B) A F D2 |
{G}F2 d {d}c2 B | A2 {ef}g {g}Hf2 e |
(f/g/a/f/) (e/d/) B> c d | (A>B) A F D |]
K:

